X: 1
T: It's A Hard Road To Travel
M: 4/4
L: 1/8
R: reel
K: Cmaj
|:G,C~C2 EG~G2|Addc dfed|~c3G AdcA|G2EC DCA,C|
G,C~C2 EG~G2|Addc dfed|~c3G AdcA|GEDG ECC2:|
|:[E3c3]c Gcea|gedc dcAB|c2ec Gcea|gedf eccB|
cdec Gcea|gedc ABcd|eg~g2 ea~a2|gedf eccB:|
